X:14
T:The Green Meadow
C:Traditional
M:4/4
L:1/8
Q:1/4=70
K:G
|: BA | "G" G2 GA BGBd | "C" egge "G" dBAG | "A" EAAG ABAG | "A" EAAG AcBA |
"G" G3 A BGBd | "C" e2 ge "G" dBAG | "C" EGGG "G" BGAG | "A" EGFA "G" G2 :|
|: ga | "G" bg g2 agef | "G" g3 e d2 Bd | "A" eaag abag | "A" eaag a2 ga |
"G" b3 g agef | "G" g3 e d2 Bd | "C" eg g2 "G" bgag | "C" eggf "G" g2 :|
|: Bd | "C" e3 c "G" d2 Bd | "A" cAA2 "G" B2 AG | "A" EAAG ABAG | "A" EAAG ABcd |
"C" ecce "G" dB B2 | "A" cA A2 "G" BGAG | "A" EG G2 "G" BGAG | "C" EGGF "G" G2 :|

